!!!COM: Palestrina, Giovanni Perluigi da
!!!OPR: Missa Hodie Christus Natus Est
!!!OMD: Credo
!!!OTL: First Section
**kern	**kern	**kern	**kern	**kern	**kern	**kern	**kern
*Ibass	*Itenor	*Itenor	*Icalto	*Ibass	*Icalto	*Icant	*Icant
!Bassus	!Tenor 2	!Tenor 1	!Altus	!Bassus	!Altus	!Cantus 2	!Cantus 1
*clefF4	*clefGv2	*clefGv2	*clefG2	*clefF4	*clefG2	*clefG2	*clefG2
*k[]	*k[]	*k[]	*k[]	*k[]	*k[]	*k[]	*k[]
*G:mix	*G:mix	*G:mix	*G:mix	*G:mix	*G:mix	*G:mix	*G:mix
*M4/2	*M4/2	*M4/2	*M4/2	*M4/2	*M4/2	*M4/2	*M4/2
=1	=1	=1	=1	=1	=1	=1	=1
0r	0r	0r	0r	0G	0g	0b	0dd
=2	=2	=2	=2	=2	=2	=2	=2
0r	0r	0r	0r	1G	1g	1b	1dd
.	.	.	.	1c	1g	1cc	1ee
=3	=3	=3	=3	=3	=3	=3	=3
0r	0r	0r	0r	2G	2g	2b	2dd
.	.	.	.	2A	2e	2a	2cc
.	.	.	.	1d	2.f	4a	4dd
.	.	.	.	.	.	4g	4ee
.	.	.	.	.	.	4a	[2ff
.	.	.	.	.	4g	4b	.
=4	=4	=4	=4	=4	=4	=4	=4
1r	1r	1r	1r	0c	2a	1cc	2ff]
.	.	.	.	.	4g	.	2ee
.	.	.	.	.	4f	.	.
1C	1c	1e	1g	.	2g	1cc	1ee
.	.	.	.	.	2c	.	.
=5	=5	=5	=5	=5	=5	=5	=5
2C	2c	2e	2g	0r	0r	0r	0r
2C	2c	2e	2g	.	.	.	.
1F	1c	1f	1a	.	.	.	.
=6	=6	=6	=6	=6	=6	=6	=6
2C	2c	2e	2g	0r	0r	0r	0r
2D	1A	2d	2f	.	.	.	.
1A	.	4c	2.e	.	.	.	.
.	.	4d	.	.	.	.	.
.	[2c	4e	.	.	.	.	.
.	.	4f	8d	.	.	.	.
.	.	.	8c	.	.	.	.
=7	=7	=7	=7	=7	=7	=7	=7
0G	2c]	1g	2e	1r	1r	1r	1r
.	4B	.	2d	.	.	.	.
.	4A	.	.	.	.	.	.
.	1B	1d	1g	2.G	2.g	2.b	2.dd
.	.	.	.	4G	4g	4b	4dd
=8	=8	=8	=8	=8	=8	=8	=8
0r	0r	0r	0r	2c	2g	2ee	2cc
.	.	.	.	2c	2g	2cc	2ee
.	.	.	.	1G	1g	1b	1dd
=9	=9	=9	=9	=9	=9	=9	=9
2.D	2r	2.d	2.a	2d	2f#	2a	2dd
.	2d	.	.	2d	2f#	2a	2dd
4D	.	4d	4a	.	.	.	.
2G	2B	2d	2b	1G	1g	1g	1dd
2G	2d	[2g	2b	.	.	.	.
=10	=10	=10	=10	=10	=10	=10	=10
4C	2e	4g]	2cc	0r	0r	0r	0r
4D	.	4f	.	.	.	.	.
4E	1c	2e	2g	.	.	.	.
4F	.	.	.	.	.	.	.
2G	.	2d	2.g	.	.	.	.
2G	2B	2d	.	.	.	.	.
.	.	.	4f	.	.	.	.
=11	=11	=11	=11	=11	=11	=11	=11
0C	0c	2.g	4e	2r	2r	2r	2r
.	.	.	4d	.	.	.	.
.	.	.	4e	1c	1g	1ee	1cc
.	.	4f	4f	.	.	.	.
.	.	1e	1g	.	.	.	.
.	.	.	.	2c	2g	2ee	2cc
=12	=12	=12	=12	=12	=12	=12	=12
0r	0r	0r	0r	2G	2g	2dd	2b
.	.	.	.	2c	2e	2ee	2cc
.	.	.	.	2.F	2.f	2.cc	2.a
.	.	.	.	4F	4f	4cc	4a
=13	=13	=13	=13	=13	=13	=13	=13
1r	1r	1r	1r	4F	1f	0cc	4a
.	.	.	.	4G	.	.	4b
.	.	.	.	4A	.	.	4cc
.	.	.	.	4B	.	.	4dd
[1C	2.c	[1e	2.g	1c	2.e	.	1ee
.	4d	.	4f	.	4f	.	.
=14	=14	=14	=14	=14	=14	=14	=14
1C]	4e	1e]	4e	1c	1g	1cc	1ee
.	4f	.	4d	.	.	.	.
.	1g	.	2c	.	.	.	.
1G	.	1g	2G	1B	1g	1dd	1dd
.	[2G	.	[2g	.	.	.	.
=15	=15	=15	=15	=15	=15	=15	=15
0C	2G]	1e	4g]	0c	0g	0ee	0cc
.	.	.	4f	.	.	.	.
.	2.c	.	4e	.	.	.	.
.	.	.	4d	.	.	.	.
.	.	1c	1e	.	.	.	.
.	4B	.	.	.	.	.	.
.	4G	.	.	.	.	.	.
.	4A	.	.	.	.	.	.
=16	=16	=16	=16	=16	=16	=16	=16
2G	4B	2d	1g	0G	0g	0dd	0b
.	4c	.	.	.	.	.	.
2.G	2d	2.B	.	.	.	.	.
.	1G	.	2r	.	.	.	.
4A	.	4c	.	.	.	.	.
2B	.	2d	[2g	.	.	.	.
=17	=17	=17	=17	=17	=17	=17	=17
2c	1r	2e	4g]	0r	0r	0r	0r
.	.	.	4a	.	.	.	.
2B	.	2d	2b	.	.	.	.
2.A	2r	2r	2cc	.	.	.	.
.	[2c	[2e	2a	.	.	.	.
4B	.	.	.	.	.	.	.
=18	=18	=18	=18	=18	=18	=18	=18
1c	4c]	4e]	1g	0r	0r	0r	0r
.	4d	4f	.	.	.	.	.
.	2e	2g	.	.	.	.	.
2A	2f	2a	2cc	.	.	.	.
4c	2e	2g	[2cc	.	.	.	.
4B	.	.	.	.	.	.	.
=19	=19	=19	=19	=19	=19	=19	=19
4A	1.a	1.f	4cc]	0r	0r	0r	0r
4G	.	.	4b	.	.	.	.
4F	.	.	4a	.	.	.	.
4E	.	.	4g	.	.	.	.
4D	.	.	4f	.	.	.	.
4E	.	.	4g	.	.	.	.
4F	2f	2d	[2a	.	.	.	.
4G	.	.	.	.	.	.	.
=20	=20	=20	=20	=20	=20	=20	=20
2A	2e	2c	2a]	0r	0r	0r	0r
2B-	1d	2d	2g	.	.	.	.
1A	.	1e	[1a	.	.	.	.
.	2c#	.	.	.	.	.	.
=21	=21	=21	=21	=21	=21	=21	=21
1D	1d	1f#	1a]	2r	2r	2r	2r
.	.	.	.	2d	2a	2a	2dd
1r	1r	1r	1r	2G	2g	2b	2dd
.	.	.	.	[2c	[2g	[2cc	[2ee
=22	=22	=22	=22	=22	=22	=22	=22
0r	0r	0r	0r	2c]	2g]	2cc]	2ee]
.	.	.	.	2B	2g	2dd	2dd
.	.	.	.	1A	4c	[1ee	1cc
.	.	.	.	.	4d	.	.
.	.	.	.	.	4e	.	.
.	.	.	.	.	4f	.	.
=23	=23	=23	=23	=23	=23	=23	=23
2r	2r	2r	2r	1G	2g	2ee]	1b
2G	2d	2g	2b	.	2g	2dd	.
2C	2e	2g	2cc	1r	1r	1r	1r
[2F	2f	[2c	[2a	.	.	.	.
=24	=24	=24	=24	=24	=24	=24	=24
4F]	2F	4c]	4a]	0r	0r	0r	0r
4F	.	4c	4a	.	.	.	.
2E	2G	2c	2g	.	.	.	.
2D	2A	2d	2f	.	.	.	.
2D	2B	2f	2d	.	.	.	.
=25	=25	=25	=25	=25	=25	=25	=25
1C	1c	1e	1g	2r	2r	2r	2r
.	.	.	.	2c	2e	2ee	2g
2r	2r	2r	2r	2B	2g	2dd	2b
2G	2G	2d	2g	2G	2g	2b	2dd
=26	=26	=26	=26	=26	=26	=26	=26
2C	2.G	2c	2e	1c	1g	1cc	1ee
2C	.	2c	2e	.	.	.	.
.	4A	.	.	.	.	.	.
1G	1B	1d	1g	1G	1g	1b	1dd
=27	=27	=27	=27	=27	=27	=27	=27
1C	1c	1g	1e	2r	2r	2r	2r
.	.	.	.	2c	2e	2g	2ee
2r	2r	2r	2r	2B	2g	2b	2dd
2G	2d	2G	2g	2G	2g	2dd	2b
=28	=28	=28	=28	=28	=28	=28	=28
2C	2c	2.G	2e	2c	2.g	2ee	2cc
2C	2c	.	2e	2c	.	2ee	2cc
.	.	4A	.	.	4g	.	.
2G	2d	2B	2g	1G	1g	1dd	1b
2G	2d	2B	2g	.	.	.	.
=29	=29	=29	=29	=29	=29	=29	=29
1C	1g	1c	1e	2r	2r	2r	2r
.	.	.	.	2c	2g	2cc	2ee
1r	1r	1r	1r	2d	2f	2a	2dd
.	.	.	.	2B-	2d	2g	2dd
=30	=30	=30	=30	=30	=30	=30	=30
2r	2r	2r	2r	1A	1e	1a	1cc
2A	2e	2c	2a	.	.	.	.
2B-	2d	2d	2f	1r	1r	1r	1r
2G	2B-	2e	2g	.	.	.	.
=31	=31	=31	=31	=31	=31	=31	=31
1F	4c	2.f	1a	0r	1r	0r	0r
.	4d	.	.	.	.	.	.
.	2.c	.	.	.	.	.	.
.	.	4e	.	.	.	.	.
1G	.	1d	1g	.	2r	.	.
.	8B	.	.	.	.	.	.
.	8A	.	.	.	.	.	.
.	2B	.	.	.	[2g	.	.
=32	=32	=32	=32	=32	=32	=32	=32
1C	1c	1e	1g	2r	4g]	2r	2r
.	.	.	.	.	4f	.	.
.	.	.	.	1c	4e	1ee	1g
.	.	.	.	.	4d	.	.
1r	1r	1r	1r	.	2c	.	.
.	.	.	.	2B	2d	2dd	2g
=33	=33	=33	=33	=33	=33	=33	=33
0r	0r	0r	0r	2A	2e	2cc	2a
.	.	.	.	2G#	2e	2b	2b
.	.	.	.	1A	1e	1a	1cc
=34	=34	=34	=34	=34	=34	=34	=34
0r	0r	0r	0r	2E	1e	2g#	2b
.	.	.	.	1A	.	1a	1cc
.	.	.	.	.	2c	.	.
.	.	.	.	2G	2d	2b	2b
=35	=35	=35	=35	=35	=35	=35	=35
0r	0r	0r	0r	2F	2f	2.cc	2a
.	.	.	.	2E	2g	.	2g
.	.	.	.	.	.	4cc	.
.	.	.	.	2F	2f	2cc	2a
.	.	.	.	2G	2d	2b	[2g
=36	=36	=36	=36	=36	=36	=36	=36
1r	1r	1r	1r	1A	1c	1cc	2g]
.	.	.	.	.	.	.	2f#
2r	2r	2r	2r	1G	1d	1b	1g
2G	2d	2g	2b	.	.	.	.
=37	=37	=37	=37	=37	=37	=37	=37
2C	2e	2g	2cc	0r	0r	0r	0r
1F	1f	1a	1cc	.	.	.	.
2G	2d	2g	2b	.	.	.	.
=38	=38	=38	=38	=38	=38	=38	=38
4D	2d	1f	1a	0r	0r	0r	0r
4E	.	.	.	.	.	.	.
4F	1a	.	.	.	.	.	.
4G	.	.	.	.	.	.	.
4A	.	1e	[1cc	.	.	.	.
4B	.	.	.	.	.	.	.
2c	2g	.	.	.	.	.	.
=39	=39	=39	=39	=39	=39	=39	=39
2F	2a	2f	2cc]	0r	0r	0r	0r
2G	4g	1d	2b	.	.	.	.
.	4f	.	.	.	.	.	.
[1A	[1e	.	[1a	.	.	.	.
.	.	4c#	.	.	.	.	.
.	.	4B	.	.	.	.	.
=40	=40	=40	=40	=40	=40	=40	=40
1A]	1e]	1c#	1a]	2r	1r	1r	2r
.	.	.	.	2A	.	.	2ee
1r	1r	1r	1r	2d	2r	1a	2ff#
.	.	.	.	2d	2a	.	2ff#
=41	=41	=41	=41	=41	=41	=41	=41
0r	0r	0r	0r	1G	2b	2dd	2gg
.	.	.	.	.	2b	2dd	2.gg
.	.	.	.	1c	2.cc	2ee	.
.	.	.	.	.	.	.	4ff
.	.	.	.	.	.	[2cc	4ee
.	.	.	.	.	4b	.	4dd
=42	=42	=42	=42	=42	=42	=42	=42
1r	1r	0r	1r	1c	2a	2cc]	2ee
.	.	.	.	.	1g	2b	2ee
2r	2r	.	2r	[1d	.	[1a	[1dd
2D	2d	.	2a	.	2f#	.	.
=43	=43	=43	=43	=43	=43	=43	=43
2D	2d	2r	2a	1d]	1f#	1a]	1dd]
2D	2d	2d	2a	.	.	.	.
[1G	2.B	2d	2.g	2r	2r	2r	2r
.	.	2d	.	2G	2g	2b	2dd
.	4c	.	4a	.	.	.	.
=44	=44	=44	=44	=44	=44	=44	=44
1G]	1d	0g	4b	2G	2g	2b	2dd
.	.	.	4a	.	.	.	.
.	.	.	4g	2G	2g	2b	2dd
.	.	.	4f	.	.	.	.
2C	2c	.	2e	1c	1g	[1cc	1ee
2C	[2c	.	2g	.	.	.	.
=45	=45	=45	=45	=45	=45	=45	=45
1F	2c]	2c	1f	2A	2a	2cc]	2cc
.	2.f	2c	.	2A	2a	2cc	2a
[1D	.	1f	1a	[1d	[1a	1dd	[1ff
.	4g	.	.	.	.	.	.
.	[2a	.	.	.	.	.	.
=46	=46	=46	=46	=46	=46	=46	=46
1D]	2a]	1d	2.f	1d]	1a]	1dd	1ff]
.	2A	.	.	.	.	.	.
.	.	.	4g	.	.	.	.
2r	2r	2r	2a	1A	1a	1cc#	1ee
2A	2A	2e	2a	.	.	.	.
=47	=47	=47	=47	=47	=47	=47	=47
1A	1c#	2e	2.a	1r	1r	1r	1r
.	.	2A	.	.	.	.	.
.	.	.	4g	.	.	.	.
[1D	1d	2.a	4f	2r	2r	2r	2r
.	.	.	4d	.	.	.	.
.	.	.	4f	2d	2d	2a	2dd
.	.	4g	4g	.	.	.	.
=48	=48	=48	=48	=48	=48	=48	=48
1D]	2.d	4f	2a	1d	1f	1a	1dd
.	.	4e	.	.	.	.	.
.	.	2.d	2a	.	.	.	.
.	4c	.	.	.	.	.	.
[1G	4B	.	2r	1G	[1g	1b	2dd
.	4A	4c	.	.	.	.	.
.	2G	4B	[2d	.	.	.	2dd
.	.	4A	.	.	.	.	.
=49	=49	=49	=49	=49	=49	=49	=49
1G]	1d	1B	2d]	1B	2g]	1dd	2.gg
.	.	.	2.g	.	2g	.	.
.	.	.	.	.	.	.	4ff
[1C	2.c	1e	.	[1c	[1g	[1cc	[1ee
.	.	.	4f	.	.	.	.
.	.	.	4e	.	.	.	.
.	4B	.	4d	.	.	.	.
=50	=50	=50	=50	=50	=50	=50	=50
1C]	2G	1c	1e	1c]	1g]	1cc]	1ee]
.	2A	.	.	.	.	.	.
1G	1B	1d	1g	1G	1g	1b	1dd
=51	=51	=51	=51	=51	=51	=51	=51
0r	0r	0r	0r	2r	2r	2r	2r
.	.	.	.	2G	2g	2dd	2b
.	.	.	.	2G	2g	2dd	2b
.	.	.	.	2G	2g	2dd	2b
=52	=52	=52	=52	=52	=52	=52	=52
0r	0r	0r	0r	1D	1f#	1dd	1a
.	.	.	.	1G	1g	1dd	1b
=53	=53	=53	=53	=53	=53	=53	=53
2r	2r	2r	2r	0C	0g	0ee	0cc
2c	2e	2c	2g	.	.	.	.
2c	2g	2e	2cc	.	.	.	.
2c	2g	2e	2cc	.	.	.	.
=54	=54	=54	=54	=54	=54	=54	=54
1G	1g	1d	1b	0r	0r	0r	0r
1c	1g	1e	1cc	.	.	.	.
=55	=55	=55	=55	=55	=55	=55	=55
1F	1f	1A	1a	2r	2r	2r	2r
.	.	.	.	1F	1a	1ff	1cc
1r	1r	1r	1r	.	.	.	.
.	.	.	.	2F	2a	2ff	2cc
=56	=56	=56	=56	=56	=56	=56	=56
0r	0r	0r	0r	1F	1a	1ff	1cc
.	.	.	.	1F	1A	1ff	2cc
.	.	.	.	.	.	.	[2cc
=57	=57	=57	=57	=57	=57	=57	=57
0r	0r	0r	0r	1A	1c	1ee	4cc]
.	.	.	.	.	.	.	4b
.	.	.	.	.	.	.	1a
.	.	.	.	1B-	1d	1dd	.
.	.	.	.	.	.	.	2g
=58	=58	=58	=58	=58	=58	=58	=58
1r	1r	1r	1r	1A	1e	1cc#	1a
1D	1d	1f#	1a	1r	1r	1r	1r
=59	=59	=59	=59	=59	=59	=59	=59
1G	1B	1g	1d	1G	1g	1b	1dd
1G	2G	1d	1g	1B	1g	1dd	1b
.	[2g	.	.	.	.	.	.
=60	=60	=60	=60	=60	=60	=60	=60
0C	4g]	2.g	2.e	1c	0g	2cc	2ee
.	4f	.	.	.	.	.	.
.	4e	.	.	.	.	2.gg	2.ee
.	4d	4f	4f	.	.	.	.
.	2c	[1e	1g	1c	.	.	.
.	.	.	.	.	.	4ff	4dd
.	[2e	.	.	.	.	[2ee	2cc
=61	=61	=61	=61	=61	=61	=61	=61
2.E	4e]	1e]	0g	0G	1.g	4ee]	2b
.	4f	.	.	.	.	4dd	.
.	2.g	.	.	.	.	1cc	2g
4F	.	.	.	.	.	.	.
1G	.	1d	.	.	.	.	2.gg
.	4f	.	.	.	.	.	.
.	2d	.	.	.	2g	2b	.
.	.	.	.	.	.	.	4ff
=62	=62	=62	=62	=62	=62	=62	=62
0C	0e	0c	0g	0c	0g	0cc	0ee
*-	*-	*-	*-	*-	*-	*-	*-
!!!CDT: 1525/^1526/-1594/2/2
!!!OCY: Italia
!!!AGN: Mass (Parody)
!!!AST: renaissance, vocal
!!!ASW: Motet 1575 (Palestrina)
!!!PWK: Masses, Book 8vce
!!!RNB: Cadence finals: C,D
!!!YOR: Le Opere Complete, v. 30, p. 59
!!!YOO: Rome, Italy: Fratelli Scalera
!!!END: 1992//
!!!EED: John Miller
!!!YEC: Copyright 2000, John Miller
!!!YEN: United States of America
!!!YEM: Rights to all derivative electronic formats reserved.
!!!YEM: Refer to licensing agreement for further details.
!!!YEM: This file must be accompanied by the licensing agreement.
!!!YEM: A copy of the licensing agreement may be found at http://www.music-cog.ohio-state.edu/HumdrumDatabases/Palestrina/license.txt
!!!EMD: converted to Humdrum by Bret Aarden
